packages/kaspersky-hexa-ui-icons/src/iconsSVGs/28x20/FlagSg.svg

<svg width="28" height="20" viewBox="0 0 28 20" fill="none" xmlns="http://www.w3.org/2000/svg">
<g clip-path="url(#clip0_5138_1784)">
<path d="M0 2C0 0.895431 0.895431 0 2 0H26C27.1046 0 28 0.895431 28 2V18C28 19.1046 27.1046 20 26 20H2C0.895431 20 0 19.1046 0 18V2Z" fill="white"/>
<mask id="mask0_5138_1784" style="mask-type:luminance" maskUnits="userSpaceOnUse" x="0" y="0" width="28" height="20">
<rect width="28" height="20" rx="2" fill="white"/>
</mask>
<g mask="url(#mask0_5138_1784)">
<path d="M26 19.5V20H2V19.5H26ZM27.5 18V2C27.5 1.17157 26.8284 0.5 26 0.5H2C1.17157 0.5 0.5 1.17157 0.5 2V18C0.5 18.8284 1.17157 19.5 2 19.5V20C0.895431 20 0 19.1046 0 18V2C2.57702e-07 0.895431 0.895431 0 2 0H26C27.1046 0 28 0.895431 28 2V18C28 19.1046 27.1046 20 26 20V19.5C26.8284 19.5 27.5 18.8284 27.5 18Z" fill="#F5F5F5"/>
<path fill-rule="evenodd" clip-rule="evenodd" d="M0 10.6667H28V0H0V10.6667Z" fill="#E12237"/>
<path fill-rule="evenodd" clip-rule="evenodd" d="M7.99999 2.00001C8.40974 2.00001 8.80223 2.07394 9.16484 2.2092C8.48032 1.66112 7.61177 1.33334 6.66666 1.33334C4.45752 1.33334 2.66666 3.1242 2.66666 5.33334C2.66666 7.54248 4.45752 9.33334 6.66666 9.33334C7.61177 9.33334 8.48032 9.00557 9.16484 8.45749C8.80223 8.59274 8.40974 8.66668 7.99999 8.66668C6.15904 8.66668 4.66666 7.17429 4.66666 5.33334C4.66666 3.49239 6.15904 2.00001 7.99999 2.00001ZM7.33332 5.33334C7.70151 5.33334 7.99999 5.03487 7.99999 4.66668C7.99999 4.29849 7.70151 4.00001 7.33332 4.00001C6.96513 4.00001 6.66666 4.29849 6.66666 4.66668C6.66666 5.03487 6.96513 5.33334 7.33332 5.33334ZM9.33332 7.33334C9.33332 7.70153 9.03485 8.00001 8.66666 8.00001C8.29847 8.00001 7.99999 7.70153 7.99999 7.33334C7.99999 6.96515 8.29847 6.66668 8.66666 6.66668C9.03485 6.66668 9.33332 6.96515 9.33332 7.33334ZM11.3333 8.00001C11.7015 8.00001 12 7.70153 12 7.33334C12 6.96515 11.7015 6.66668 11.3333 6.66668C10.9651 6.66668 10.6667 6.96515 10.6667 7.33334C10.6667 7.70153 10.9651 8.00001 11.3333 8.00001ZM13.3333 4.66668C13.3333 5.03487 13.0348 5.33334 12.6667 5.33334C12.2985 5.33334 12 5.03487 12 4.66668C12 4.29849 12.2985 4.00001 12.6667 4.00001C13.0348 4.00001 13.3333 4.29849 13.3333 4.66668ZM9.99999 3.33334C10.3682 3.33334 10.6667 3.03487 10.6667 2.66668C10.6667 2.29849 10.3682 2.00001 9.99999 2.00001C9.6318 2.00001 9.33332 2.29849 9.33332 2.66668C9.33332 3.03487 9.6318 3.33334 9.99999 3.33334Z" fill="white"/>
</g>
</g>
<defs>
<clipPath id="clip0_5138_1784">
<rect width="28" height="20" fill="white"/>
</clipPath>
</defs>
</svg>

<svg xmlns="http://www.w3.org/2000/svg" width="28" height="20" fill="none" viewBox="0 0 28 20"><g clip-path="url(#a)"><path fill="#fff" d="M0 2C0 .8954.8954 0 2 0h24c1.1046 0 2 .8954 2 2v16c0 1.1046-.8954 2-2 2H2c-1.1046 0-2-.8954-2-2z"/><mask id="b" width="28" height="20" x="0" y="0" maskUnits="userSpaceOnUse" style="mask-type:luminance"><rect width="28" height="20" fill="#fff" rx="2"/></mask><g mask="url(#b)"><path fill="#f5f5f5" d="M26 19.5v.5H2v-.5zm1.5-1.5V2c0-.8284-.6716-1.5-1.5-1.5H2C1.1716.5.5 1.1716.5 2v16c0 .8284.6716 1.5 1.5 1.5v.5c-1.1046 0-2-.8954-2-2V2C0 .8954.8954 0 2 0h24c1.1046 0 2 .8954 2 2v16c0 1.1046-.8954 2-2 2v-.5c.8284 0 1.5-.6716 1.5-1.5"/><path fill="#e12237" fill-rule="evenodd" d="M0 10.6667h28V0H0z" clip-rule="evenodd"/><path fill="#fff" fill-rule="evenodd" d="M8 2c.4097 0 .8022.074 1.1648.2092a3.983 3.983 0 0 0-2.4981-.8759c-2.2092 0-4 1.7909-4 4s1.7908 4 4 4a3.983 3.983 0 0 0 2.4981-.8758A3.33 3.33 0 0 1 8 8.6667c-1.841 0-3.3333-1.4924-3.3333-3.3334S6.159 2 8 2m-.6667 3.3333a.6667.6667 0 1 0 0-1.3333.6667.6667 0 0 0 0 1.3333m2 2a.6667.6667 0 1 1-1.3333 0 .6667.6667 0 0 1 1.3333 0m2 .6667a.6667.6667 0 1 0 0-1.3334.6667.6667 0 0 0 0 1.3334m2-3.3333a.6667.6667 0 1 1-1.3333 0 .6667.6667 0 0 1 1.3333 0M10 3.3333A.6667.6667 0 1 0 10 2a.6667.6667 0 0 0 0 1.3333" clip-rule="evenodd"/></g></g><defs><clipPath id="a"><path fill="#fff" d="M0 0h28v20H0z"/></clipPath></defs></svg>
